X: 1
T: O Maria [chorus only]   [C]
O: trad Italy
R: waltz
Z: 1999 John Chambers <jc:trillian.mit.edu>
M: 3/4
L: 1/4
K: C
[| [cE] [dF] \
|| "C"[c3E3]- | [cE] [AF] [BG] | [E3G3]- | [EG] [EG] [EA] \
| [AE] [AE] [BE] | [BE] [BE] [GE] | "Dm"[A3F3]- | [A3F3] |
| "G7"[B3F3] | [c2F2] [dF] | (3[B/G][c/A][B/G] [A2F2]- | [AF] [AF] [AF] \
| [BG] [BG] [BG] | [BG] [cA] [dB] | "C"(3[A/F][B/G][A/F] [G2E2]- | [GE] [cE] [dF] |
| "C"[c3E3]- | [cE] [AF] [BG] | [E3G3]- | [EG] [cE] [dF] \
| "A7"[eG] [eG] [eG] | [eG] [fA] [g_B] | "Dm"(3[e/G][f/A][e/G] [d2F2]- | [dF] F/A/d/e/ |
| "F"[f3A3] \
| "Fm"[d2_A2F2] [eAF] | "C"[c3E3G3]- | [cEG] [AF] [BG] \
| "G7"[G3F3]- | [GF] [dBF] [eBF] | "C"[c3E3G3]- | [cEG] |]
